svg/justvector/facto.me.svg

<svg xmlns="http://www.w3.org/2000/svg" viewBox="0 0 100 100" enable-background="new 0 0 100 100"><path d="m69.762 62.48l7.166-52h18.07l-13.711 52h-11.529m3.894 7.692c-5.594 0-10.127 4.478-10.127 10 0 5.523 4.533 10 10.127 10s10.127-4.477 10.127-10c0-5.523-4.533-10-10.127-10m-47.44-5.231h30.828l3.117-12.623h-31.474l5.299-27.07h33.965l3.117-15.08h-51.11l-14.959 78.77h16.518l4.695-24"/></svg>

<?xml version="1.0" encoding="iso-8859-1"?>
<!-- Generator: Adobe Illustrator 15.0.0, SVG Export Plug-In . SVG Version: 6.00 Build 0)  -->
<!DOCTYPE svg PUBLIC "-//W3C//DTD SVG 1.1//EN" "http://www.w3.org/Graphics/SVG/1.1/DTD/svg11.dtd">
<svg version="1.1" id="Layer_1" xmlns="http://www.w3.org/2000/svg" xmlns:xlink="http://www.w3.org/1999/xlink" x="0px" y="0px"
	 width="100px" height="100px" viewBox="0 0 100 100" style="enable-background:new 0 0 100 100;" xml:space="preserve">
<path id="Facto.me" d="M69.762,62.478l7.166-52h18.074l-13.711,52H69.762z M73.656,70.17c-5.594,0-10.127,4.478-10.127,10
	c0,5.523,4.533,10,10.127,10s10.127-4.477,10.127-10C83.783,74.647,79.25,70.17,73.656,70.17z M26.215,64.939h30.828l3.117-12.623
	H28.686l5.299-27.069h33.965l3.117-15.077H19.961L5.002,88.939H21.52L26.215,64.939z"/>
</svg>
